<?xml version="1.0" encoding="UTF-8"?>
<map version="1.10" tiledversion="1.12.2" orientation="orthogonal" renderorder="right-down" width="22" height="17" tilewidth="16" tileheight="16" infinite="0" nextlayerid="2" nextobjectid="1">
 <tileset firstgid="1" source="island.tsx"/>
 <layer id="1" name="blue_island" width="22" height="17">
  <data encoding="csv">
0,0,0,0,0,0,0,0,0,0,0,0,0,0,0,0,0,0,0,0,0,0,
0,0,0,0,0,0,0,0,0,0,0,0,0,0,0,0,0,0,0,0,0,0,
0,0,0,0,0,0,0,0,0,0,0,0,0,0,0,0,0,0,0,0,0,0,
0,0,65,2147483713,0,0,0,0,0,0,0,0,0,0,0,0,0,0,0,0,0,0,
0,0,81,2147483729,0,0,0,0,0,0,0,0,0,0,0,0,0,0,0,0,0,0,
0,0,97,2147483745,0,0,0,0,0,0,0,0,0,0,0,0,0,0,0,0,0,0,
0,0,113,2147483761,0,0,0,0,0,0,0,0,0,0,0,0,0,0,0,0,0,0,
21,22,22,22,22,27,22,22,22,22,22,22,22,22,22,22,22,22,22,22,22,23,
7,34,3,24,25,43,26,3,3,24,26,3,3,3,3,38,19,2,3,3,38,0,
0,7,34,56,41,41,42,3,3,56,58,3,38,19,19,0,0,18,19,19,0,0,
0,0,7,34,56,41,41,41,41,3,3,38,0,0,0,0,0,0,0,0,0,0,
0,0,0,7,2,56,41,26,3,3,38,0,0,0,0,0,0,0,0,0,0,0,
0,0,0,0,1,17,56,58,3,38,0,0,0,0,0,0,0,0,0,0,0,0,
0,0,0,0,1,33,3,37,4,0,0,0,0,0,0,0,0,0,0,0,0,0,
0,0,0,0,0,49,52,53,20,0,0,0,0,0,0,0,0,0,0,0,0,0,
0,0,0,0,0,0,34,35,36,0,0,0,0,0,0,0,0,0,0,0,0,0,
0,0,0,0,0,0,50,51,0,0,0,0,0,0,0,0,0,0,0,0,0,0
</data>
 </layer>
</map>
